material/.icons/material/key-star.svg

<svg xmlns="http://www.w3.org/2000/svg" viewBox="0 0 24 24"><path d="M6.5 3C4 3 2 5 2 7.5S4 12 6.5 12c1.96 0 3.63-1.25 4.24-3H15v3h3V9h4V6H10.74c-.61-1.75-2.28-3-4.24-3m0 3C7.33 6 8 6.67 8 7.5S7.33 9 6.5 9 5 8.33 5 7.5 5.67 6 6.5 6m5.5 8l-1.13 2.64-2.87.25 2.18 1.88-.68 2.81 2.5-1.49 2.45 1.49-.65-2.81 2.2-1.88-2.89-.25z"/></svg>

<?xml version="1.0" encoding="UTF-8"?><!DOCTYPE svg PUBLIC "-//W3C//DTD SVG 1.1//EN" "http://www.w3.org/Graphics/SVG/1.1/DTD/svg11.dtd"><svg xmlns="http://www.w3.org/2000/svg" xmlns:xlink="http://www.w3.org/1999/xlink" version="1.1" id="mdi-key-star" width="24" height="24" viewBox="0 0 24 24"><path d="M6.5 3C4 3 2 5 2 7.5S4 12 6.5 12C8.46 12 10.13 10.75 10.74 9H15V12H18V9H22V6H10.74C10.13 4.25 8.46 3 6.5 3M6.5 6C7.33 6 8 6.67 8 7.5S7.33 9 6.5 9 5 8.33 5 7.5 5.67 6 6.5 6M12 14L10.87 16.64L8 16.89L10.18 18.77L9.5 21.58L12 20.09L14.45 21.58L13.8 18.77L16 16.89L13.11 16.64Z" /></svg>
